public/assets/img/aws-s3.svg

<?xml version="1.0" encoding="UTF-8" standalone="no"?>
<svg width="256px" height="310px" viewBox="0 0 256 310" version="1.1" xmlns="http://www.w3.org/2000/svg" xmlns:xlink="http://www.w3.org/1999/xlink" preserveAspectRatio="xMidYMid">
	<g>
		<path d="M20.624,53.686 L0,64 L0,245.02 L20.624,255.274 L20.748,255.125 L20.748,53.828 L20.624,53.686" fill="#8C3123"></path>
		<path d="M131,229 L20.624,255.274 L20.624,53.686 L131,79.387 L131,229" fill="#E05243"></path>
		<path d="M81.178,187.866 L127.996,193.826 L128.29,193.148 L128.553,116.378 L127.996,115.778 L81.178,121.652 L81.178,187.866" fill="#8C3123"></path>
		<path d="M127.996,229.295 L235.367,255.33 L235.536,255.061 L235.533,53.866 L235.363,53.686 L127.996,79.682 L127.996,229.295" fill="#8C3123"></path>
		<path d="M174.827,187.866 L127.996,193.826 L127.996,115.778 L174.827,121.652 L174.827,187.866" fill="#E05243"></path>
		<path d="M174.827,89.631 L127.996,98.166 L81.178,89.631 L127.937,77.375 L174.827,89.631" fill="#5E1F18"></path>
		<path d="M174.827,219.801 L127.996,211.21 L81.178,219.801 L127.939,232.854 L174.827,219.801" fill="#F2B0A9"></path>
		<path d="M81.178,89.631 L127.996,78.045 L128.375,77.928 L128.375,0.313 L127.996,0 L81.178,23.413 L81.178,89.631" fill="#8C3123"></path>
		<path d="M174.827,89.631 L127.996,78.045 L127.996,0 L174.827,23.413 L174.827,89.631" fill="#E05243"></path>
		<path d="M127.996,309.428 L81.173,286.023 L81.173,219.806 L127.996,231.388 L128.685,232.171 L128.498,308.077 L127.996,309.428" fill="#8C3123"></path>
		<path d="M127.996,309.428 L174.823,286.023 L174.823,219.806 L127.996,231.388 L127.996,309.428" fill="#E05243"></path>
		<path d="M235.367,53.686 L256,64 L256,245.02 L235.367,255.33 L235.367,53.686" fill="#E05243"></path>
	</g>
</svg>

<svg xmlns="http://www.w3.org/2000/svg" width="256" height="310" preserveAspectRatio="xMidYMid"><path fill="#8C3123" d="M20.62 53.7L0 64v181.02l20.62 10.25.13-.15V53.82l-.13-.13"/><path fill="#E05243" d="M131 229L20.62 255.27V53.7L131 79.4V229"/><path fill="#8C3123" d="M81.18 187.87l46.82 5.96.3-.68.25-76.77-.55-.6-46.82 5.87v66.22M128 229.3l107.37 26.03.17-.27V53.86l-.18-.17L128 79.67V229.3"/><path fill="#E05243" d="M174.83 187.87L128 193.83v-78.05l46.83 5.87v66.22"/><path fill="#5E1F18" d="M174.83 89.63L128 98.17l-46.82-8.54 46.76-12.25 46.9 12.25"/><path fill="#F2B0A9" d="M174.83 219.8L128 211.2l-46.82 8.6 46.76 13.05 46.9-13.05"/><path fill="#8C3123" d="M81.18 89.63L128 78.05l.38-.12V.3L128 0 81.18 23.4v66.23"/><path fill="#E05243" d="M174.83 89.63L128 78.05V0l46.83 23.4v66.23"/><path fill="#8C3123" d="M128 309.43l-46.83-23.4V219.8L128 231.4l.7.77-.2 75.9-.5 1.36"/><path fill="#E05243" d="M128 309.43l46.82-23.4V219.8L128 231.4v78.03M235.37 53.7L256 64v181.02l-20.63 10.3V53.7"/></svg>
